epam-assets/icon-sources/18/media-playlist-minus.svg

<svg xmlns="http://www.w3.org/2000/svg" width="18" height="18" fill="none" viewBox="0 0 18 18">
  <path fill="#6C6F80" d="M3 12.75v-1.5h5.25v1.5H3Zm0-3v-1.5h9v1.5H3Zm0-3v-1.5h9v1.5H3Zm9.75 6H10.5v-1.5h6.75v1.5h-4.5Z"/>
</svg>

<svg width="18" height="18" viewBox="0 0 18 18" fill="none" xmlns="http://www.w3.org/2000/svg">
<g id="18/media-playlist-minus">
<path id="icon" d="M3 12.75V11.25H8.25V12.75H3ZM3 9.75V8.25H12V9.75H3ZM3 6.75V5.25H12V6.75H3ZM12.75 12.75H10.5V11.25H12.75H14.25H17.25V12.75H14.25H12.75Z" fill="#6C6F80"/>
</g>
</svg>
